X:1
T:Sonatina in C Major - Op 20, No. 1
T:Movement 2 - Andante
T:Friedrich Kuhlau
T:Public Domain
Z:Public Domain
%%score { ( 1 3 ) | 2 }
L:1/8
Q:1/4=40
M:6/8
K:F
V:1 treble 
V:3 treble 
V:2 bass 
V:1
!p!"^<sym>note8thUp</sym> = 80" F/>A/ | .c.c.c (!tenuto!cfA |!>(! !>!c>=Bd/c/!>)! _B2) (!>!b/>g/ | %3
 e2) (!>!g/>e/ c2) (!>!d/>B/ | (!tenuto!G2) ^G .A2) z | z2 [FA]- [FA][EG][^FA] | c2 B A2 a/>g/ | %7
 f7/4e/<d/c/4 B7/4a/<g/B/4 | c(.[Ec].[Ec]) [Ec]2 :: ([CE]/>[DF]/ | %10
 !tenuto![EG]2) ([EG]/>[FA]/ !tenuto![GB]2) ([GB]/>[Ac]/ | !tenuto![Bd]2) [GB] [EG]2 [Be] | %12
 !tenuto![Af]!tenuto![Af]!tenuto![Af] !tenuto![FB]!tenuto![FB]!tenuto![FB] | %13
 !tenuto![Ec]!tenuto!c/>B/c/>B/ c/>B/c/>B/c/>B/ | .c.c.c !tenuto!cfA | c>=Bd/c/ _B2 .A | %16
!<(! G/4^F/4A/4G/4 B/4A/4c/4B/4 d/4^c/4!<)!e/4d/4 (!>!F2 (A/>)G/ | .F).[A,F].[A,F] [A,F]2 :| %18
V:2
 z | z .[F,A,C].[F,A,C] .[F,A,C].[F,A,C].[F,A,C] | [E,G,C]3- .[E,G,C]2 z | %3
 (.[G,B,C].[G,B,C]) z (.[G,B,C].[G,B,C]) z | z (.[G,B,C].[G,B,C]) .[F,A,C]2 F,,/>A,,/ | %5
 .C,.C,.C, !tenuto!C,B,,A,, | G,,2 C, .F,,2 z |[K:treble] (.[FA].[FA]) z (.[G,F].[G,F]) z | %8
[K:bass] [CE](.[C,C].[C,C]) [C,C]2 :: z | z [C,C]2 z [C,C]2 | z (.[C,C].[C,C]) [C,C]3 | %12
 !tenuto![_D,_D]!tenuto![D,D]!tenuto![D,D] !tenuto![D,D]!tenuto![D,D]!tenuto![D,D] | %13
 !tenuto![C,C](.[CEG].[CEG]) [CEG]2 z | z (.[F,A,C].[F,A,C] .[F,A,C].[F,A,C].[F,A,C]) | %15
 [E,G,C]3- [E,G,C]2 .[F,C] | [B,D]3 z ([C,A,](([C,B,]) | .[F,A,]))(.[F,,F,].[F,,F,]) [F,,F,]2 :| %18
V:3
 x | x6 | x6 | x6 | x6 | x6 | GDE .F2 x | x6 | x5 :: x | x6 | x6 | x6 | x6 | x6 | x6 | x4 x E | %17
 x5 :| %18

